X:2208
T:Bromsberrow Heath Reel
C:Trad
D:Jump! by Gas Mark Five
M:4/4
L:1/8
Q:1/4=128
K:D % 2 sharps
FA|:B2A2 AFAd|c2 B2 B2ed|cdef gece|edcB A2 FA| 
    B2A2 AFAd|c2B2 B2 ed|cdef gece|d4 z2  FA::
   |B2A2 AFAB| A2 GF G2 z2 |GFED CDEG|G2 FE F2 FA|
    B2A2 AFAB| A2 GF G2 z2 |GFED CDEF|1 E2D2 D2 FA :|2 E2D2 D3 z |


